src/assets/images/group4.svg

<svg fill="none" height="16" viewBox="0 0 16 16" width="16" xmlns="http://www.w3.org/2000/svg" xmlns:xlink="http://www.w3.org/1999/xlink"><clipPath id="a"><path d="m0 0h16v15.6899h-16z"/></clipPath><g clip-path="url(#a)" fill="#5a57c6"><path d="m3.50647 10.1486c-.38846.1899-.37104.4651-.34316.7699.11497 1.2421.23168 2.4841.31007 3.7278.04877.7874-.71073 1.3048-1.3239.8989-.22297-.1481-.42678-.4651-.46511-.7299-.23516-1.6043-.47556-3.2139-.59227-4.83046-.04181-.56963.22472-1.17757.41982-1.74371.15852-.45989.63233-.90757.58356-1.31694-.04878-.4111-.5644-.7682-.8797-1.14621-.297875-.35711-.599236-.70898-.898855-1.0626-.2578115-.30485-.3692976-.64802-.2926509-1.04867.1393579-.74034.2734889-1.48068.4093629-2.22101.102776-.557434.510398-.851827 1.024283-.74034.45813.099292.70724.5313.60098 1.04344-.10626.5104-.19336 1.02602-.33446 1.52597-.07665.27349-.00871.44071.19684.59401.04703.03484.08361.08187.12368.12194 1.08525 1.05563 1.13228 1.07131 2.61992.7142.10975-.02613.20207-.12716.29962-.19858.02091-.01568.03136-.04878.04529-.07316.30137-.52782.79434-1.03648.85009-1.58868.054-.52782-.34317-1.10441-.5435-1.65836-.18987-.519104-.04006-.935435.40588-1.1218257.43549-.1811653.83615.0191617 1.05563.5452367.26653.641049.51911 1.289059.78563 1.930099.15155.36408.12368.70202-.08535 1.03474-.2613.41807-.4773.86924-.78041 1.25421-.89537 1.13925-1.14621 2.5067-1.43015 3.86544-.02613.12368.02613.2822.08709.40239.31879.6184.64105 1.23507.98422 1.83957.2282.4023.26826.8152.17071 1.2577-.19858.8884-.3902 1.7802-.58704 2.6704-.12717.5783-.55918.9076-1.04519.7996-.49297-.1098-.76472-.5836-.66543-1.1445.14633-.8275.28743-1.6549.42156-2.4841.01916-.1184.02613-.2752-.03484-.364-.35014-.5122-.72118-1.0086-1.09222-1.5225z"/><path d="m11.5283 10.1592c-1.0643 1.4598-1.67747 3.038-2.02412 4.7277-.08362.4094-.31181.6881-.72118.777-.71421.155-1.22809-.4199-1.07131-1.148.37801-1.7524.97028-3.4212 1.89875-4.96287.45296-.75254.50866-1.58346.49476-2.42831-.0366-.02439-.0715-.04878-.10804-.07491-.34666.47556-.74208.92499-1.02428 1.43713-.23343.42504-.32749.92499-.49821 1.38661-.16897.45295-.55394.66365-.94763.54175-.44594-.1376-.64801-.54349-.50517-1.03996.15852-.55568.31181-1.1166.50169-1.66184.08884-.25432.25781-.47904.39194-.71769.01394-.02439.03484-.04529.054-.06793 2.02591-2.36212 1.06435-1.75765 3.9856-2.48057.2996-.07316.4948-.21426.6846-.45988.7926-1.02254 1.3222-2.16875 1.7298-3.38465.1341-.400653.432-.6183994.8588-.5974958.3885.0174197.6707.2386498.7543.6096898.047.209036 0 .461626-.0732.670656-.432 1.23158-.9494 2.42831-1.6775 3.51878-.4442.66369-.7229 1.36222-.7264 2.17747-.0018.38497-.0662.79085-.2003 1.1497-.1603.42678-.0558.76298.1184 1.14621.3292.71944.7229 1.43891.8797 2.20181.2125 1.0313.2404 2.1009.3223 3.1565.047.6079-.277 1.0016-.7996 1.04-.5104.0365-.8849-.3345-.9407-.9216-.0871-.9232-.1794-1.8464-.2752-2.7697-.0139-.1289-.0261-.2735-.0941-.3762-.3153-.4826-.648-.9546-.9877-1.4494z"/><path d="m3.82184 4.18072c-.77343-.00348-1.3988-.64627-1.38661-1.42319.01394-.75775.63931-1.36744 1.40055-1.36396.77343.00348 1.40054.64627 1.38661 1.42145-.0122.75601-.64279 1.36919-1.40055 1.3657z"/><path d="m10.8244 1.39361c.7543.0122 1.3692.64279 1.3657 1.39881-.0035.77343-.6463 1.40054-1.4214 1.38661-.77174-.01394-1.3884-.66718-1.36575-1.4441.02439-.75253.66025-1.35351 1.42145-1.34132z"/></g></svg>

<svg width="16" height="16" viewBox="0 0 16 16" fill="none" xmlns="http://www.w3.org/2000/svg">
<g clip-path="url(#clip0_100_130)">
<path d="M3.50647 10.1486C3.11801 10.3385 3.13543 10.6137 3.16331 10.9185C3.27828 12.1606 3.39499 13.4026 3.47338 14.6463C3.52215 15.4337 2.76265 15.9511 2.14948 15.5452C1.92651 15.3971 1.7227 15.0801 1.68437 14.8153C1.44921 13.211 1.20881 11.6014 1.0921 9.98484C1.05029 9.41521 1.31682 8.80727 1.51192 8.24113C1.67044 7.78124 2.14425 7.33356 2.09548 6.92419C2.0467 6.51309 1.53108 6.15599 1.21578 5.77798C0.917905 5.42087 0.616544 5.069 0.316925 4.71538C0.0591135 4.41053 -0.0523726 4.06736 0.0242741 3.66671C0.163632 2.92637 0.297763 2.18603 0.433637 1.4457C0.536413 0.888266 0.944035 0.593873 1.45792 0.70536C1.91605 0.804652 2.16516 1.23666 2.0589 1.7488C1.95264 2.2592 1.86554 2.77482 1.72444 3.27477C1.64779 3.54826 1.71573 3.71548 1.92128 3.86878C1.96831 3.90362 2.00489 3.95065 2.04496 3.99072C3.13021 5.04635 3.17724 5.06203 4.66488 4.70492C4.77463 4.67879 4.86695 4.57776 4.9645 4.50634C4.98541 4.49066 4.99586 4.45756 5.00979 4.43318C5.31116 3.90536 5.80413 3.3967 5.85988 2.8445C5.91388 2.31668 5.51671 1.74009 5.31638 1.18614C5.12651 0.667036 5.27632 0.250705 5.72226 0.0643143C6.15775 -0.116851 6.55841 0.083476 6.77789 0.609551C7.04442 1.2506 7.297 1.89861 7.56352 2.53965C7.71507 2.90373 7.6872 3.24167 7.47817 3.57439C7.21687 3.99246 7.00087 4.44363 6.69776 4.8286C5.80239 5.96785 5.55155 7.3353 5.26761 8.69404C5.24148 8.81772 5.29374 8.97624 5.3547 9.09643C5.67349 9.71483 5.99575 10.3315 6.33892 10.936C6.56712 11.3383 6.60718 11.7512 6.50963 12.1937C6.31105 13.0821 6.11943 13.9739 5.92259 14.8641C5.79542 15.4424 5.36341 15.7717 4.8774 15.6637C4.38443 15.5539 4.11268 15.0801 4.21197 14.5192C4.3583 13.6917 4.4994 12.8643 4.63353 12.0351C4.65269 11.9167 4.65966 11.7599 4.59869 11.6711C4.24855 11.1589 3.87751 10.6625 3.50647 10.1486Z" fill="#5A57C6"/>
<path d="M11.5283 10.1592C10.464 11.619 9.85083 13.1972 9.50418 14.8869C9.42056 15.2963 9.19237 15.575 8.783 15.6639C8.06879 15.8189 7.55491 15.244 7.71169 14.5159C8.0897 12.7635 8.68197 11.0947 9.61044 9.55303C10.0634 8.80049 10.1191 7.96957 10.1052 7.12472C10.0686 7.10033 10.0337 7.07594 9.99716 7.04981C9.6505 7.52537 9.25508 7.9748 8.97288 8.48694C8.73945 8.91198 8.64539 9.41193 8.47467 9.87355C8.3057 10.3265 7.92073 10.5372 7.52704 10.4153C7.0811 10.2777 6.87903 9.87181 7.02187 9.37534C7.18039 8.81966 7.33368 8.25874 7.52356 7.7135C7.6124 7.45918 7.78137 7.23446 7.9155 6.99581C7.92944 6.97142 7.95034 6.95052 7.9695 6.92788C9.99541 4.56576 9.03385 5.17023 11.9551 4.44731C12.2547 4.37415 12.4499 4.23305 12.6397 3.98743C13.4323 2.96489 13.9619 1.81868 14.3695 0.60278C14.5036 0.202127 14.8015 -0.0156194 15.2283 0.0052842C15.6168 0.0227039 15.899 0.243934 15.9826 0.614974C16.0296 0.82401 15.9826 1.0766 15.9094 1.28563C15.4774 2.51721 14.96 3.71394 14.2319 4.80441C13.7877 5.4681 13.509 6.16663 13.5055 6.98188C13.5037 7.36685 13.4393 7.77273 13.3052 8.13158C13.1449 8.55836 13.2494 8.89456 13.4236 9.27779C13.7528 9.99723 14.1465 10.7167 14.3033 11.4796C14.5158 12.5109 14.5437 13.5805 14.6256 14.6361C14.6726 15.244 14.3486 15.6377 13.826 15.6761C13.3156 15.7126 12.9411 15.3416 12.8853 14.7545C12.7982 13.8313 12.7059 12.9081 12.6101 11.9848C12.5962 11.8559 12.584 11.7113 12.516 11.6086C12.2007 11.126 11.868 10.654 11.5283 10.1592Z" fill="#5A57C6"/>
<path d="M3.82184 4.18072C3.04841 4.17724 2.42304 3.53445 2.43523 2.75753C2.44917 1.99978 3.07454 1.39009 3.83578 1.39357C4.60921 1.39705 5.23632 2.03984 5.22239 2.81502C5.21019 3.57103 4.5796 4.18421 3.82184 4.18072Z" fill="#5A57C6"/>
<path d="M10.8244 1.39361C11.5787 1.40581 12.1936 2.0364 12.1901 2.79242C12.1866 3.56585 11.5438 4.19296 10.7687 4.17903C9.99696 4.16509 9.3803 3.51185 9.40295 2.73493C9.42734 1.9824 10.0632 1.38142 10.8244 1.39361Z" fill="#5A57C6"/>
</g>
<defs>
<clipPath id="clip0_100_130">
<rect width="16" height="15.6899" fill="white"/>
</clipPath>
</defs>
</svg>
